X:1
T:The Master’s Touch
T:The Master’s Touch
T:Ada Rose Gibbs (1864-1905)
T:Edith Adeline Gilling Cherry (1872-1897)
T:Public Domain Courtesy of the Cyber Hymnal™
T:Public Domain Courtesy of the Cyber Hymnal™
C:Ada Rose Gibbs (1864-1905)
Z:Public Domain
Z:Courtesy of the Cyber Hymnal™
%%score ( 1 2 ) ( 3 4 )
L:1/8
Q:1/4=90
M:4/4
K:G
V:1 treble 
V:2 treble 
V:3 bass 
V:4 bass 
V:1
|: ([GB][GB])[Fc][Fd] | G2 ([FA][FA]) [GB]2 (cB) | [GB]2 ([FA][FA]) ([FA][FA])[FB][Fc] | %3
w: 1.~He * touched her|hand and~the * fe- ver *|left her; * He * touched her|
w: 2.~Ah! * many a|life is * one long *|fe- ver—A * fe- * ver of|
w: 3.~Whatev- * er the|fe- ver,~His * touch can *|heal it; * Whatev- * er the|
 [Gd]2 G[EA] [GB]2 [FA]2 | G2 ([GB][GB]) (cB) ([Gc][GA]) | [GB]2 [GB][GB] [Gc]2 ([GB][GB]) | %6
w: hand as on- ly He|can, With~the * won- * drous *|skill of the Great Phy- *|
w: anx- ious sus- pense and|care; A * fe- * ver~of *|get- ting, a fever of *|
w: tem- pest, His voice can|still; There~is * on- * ly *|joy as we seek His *|
 [GB]2 [=FA]2 z2 ([FA][FA]) | (G_A) ([EG][EG]) [EG]2 [EG][EG] | [^FA]2 [=FB]2 [Ec]2 ([Ec][Ec]) | %9
w: si- cian, With~the *|ten- * der * touch of the|Son of Man; And~the *|
w: fret- ting; A *|fe- * ver~of * hur- ry- ing|here and there. Ah! *|
w: plea- sure, There~is *|on- * ly * rest as we|choose His will. And *|
 [Fc]2 ([GB][GB]) ([FA][GB]) [Ac]2 | [GB]2 [FA]2 (GA)[GB][GB] | [FA]2 [DG][DG] (FG) ([FA][GB]) | %12
w: eyes, when~the * fe- * ver-|light had fad- * ed, Looked|up, by her grate- * ful *|
w: what if~the * winning * the|praise of o- * thers We|miss at the last * the *|
w: some day, * after * life’s|fit- ful fe- * ver, I|think we shall say, * in~the *|
 [Ac]2 [GB]2 [FA]2 [FA][FA] | [GB]2 ([Ad][Ad]) ([EG][EG]) ([FB][FB]) | [CE]2 [DG]2 [FA]2 [GB][GB] | %15
w: tears made dim; And she|rose and * minis- * tered *|in His house- hold, She|
w: King’s “Well done!” If our|self sought * tasks * in~the *|Mas- ter’s vine- yard Yield|
w: home on high, If the|hands that~He * touched * but *|did His bid- ding, How|
 ([EB][EB]) [EA]2 (G[GA]) ([GB]c) | [FA]4 [FA]4 | G4"^Play 3 times" :| [DG]2 [DG][FA] | %19
w: rose * and minis- * tered *|un- to|Him.||
w: nothing * but leaves * at *|set of|sun.|Lord, touch our|
w: little * it matters * what *|else went|by!||
 [GB]2 [GB][GB] [Gc]2 [GB]2 | [FA]2 [GB]2 z2 [GB]2 | [FB]2 [FA][FA] [EG][EA] Bc | [FA]4 [FA]4 | %23
w: ||||
w: hands, let the fe- ver|leave us; And|so shall we min- is- ter un-|to Thee.|
w: ||||
 G4 |] %24
w: |
w: |
w: |
V:2
|: x4 | G2 x2 G2 x2 | x8 | x2 G x5 | G2 G2 x4 | x8 | x8 | E2 x6 | x8 | x8 | x4 G2 x2 | x4 D2 x2 | %12
 x8 | x8 | x8 | x4 G x3 | x8 | G4 :| x4 | x8 | x8 | x6 G2 | x8 | G4 |] %24
V:3
|: ([G,D][G,D])[A,D][A,D] | [B,D]2 ([D,D][D,D]) [G,D]2 (ED) | %2
 [D,D]2 ([D,D][D,D]) ([CD][CD])[CD][CD] | [B,D]2 [B,D][CE] D2 [D,C]2 | %4
 [G,B,]2 ([G,D][G,D]) (ED) ([G,E][G,C]) | [G,D]2 [=F,D][F,D] [E,C]2 ([E,C][E,C]) | %6
 [=F,C]2 [F,C]2 z2 ([F,C][F,C]) | [G,C]2 ([G,C][G,C]) [G,C]2 [G,C][G,C] | %8
 [G,D]2 [G,D]2 [C,C]2 ([C,C][C,C]) | [D,A,]2 ([D,D][D,D]) ([D,D][D,D]) [D,D]2 | %10
 [D,D]2 [D,C]2 (B,C)[D,D][D,D] | [D,C]2 [D,B,][D,B,] (A,B,) ([D,C][D,D]) | %12
 [D,F,]2 [D,G,]2 [D,D]2 [D,D][D,D] | [G,D]2 ([G,D][G,D]) ([E,B,][E,B,]) ([D,B,][D,B,]) | %14
 [C,G,]2 [B,,G,]2 [A,,D]2 [G,,D][G,,D] | ([C,C][C,C]) [C,C]2 ([D,B,][D,C]) [D,D]2 | [D,C]4 [D,C]4 | %17
 [G,B,]4"^Play 3 times" :| [G,B,]2 [G,B,][D,D] | [G,D]2 [G,D][G,D] [C,E]2 [G,D]2 | %20
 [D,D]2 [G,D]2 z2 [G,D]2 | [^D,B,]2 [D,B,][D,B,] [E,B,][E,B,] [C,E]2 | [=D,C]4 [D,C]4 | [G,B,]4 |] %24
V:4
|: x4 | x6 G,2 | x8 | x4 D2 x2 | x4 G,2 x2 | x8 | x8 | x8 | x8 | x8 | x4 D,2 x2 | x4 D,2 x2 | x8 | %13
 x8 | x8 | x8 | x8 | x4 :| x4 | x8 | x8 | x8 | x8 | x4 |] %24

